webapp/src/main/webapp/src/assets/svgs/assessment-icons/Math_3-5_Geometry.svg

<?xml version="1.0" encoding="utf-8"?>
<!-- Generator: Adobe Illustrator 24.0.0, SVG Export Plug-In . SVG Version: 6.00 Build 0)  -->
<svg version="1.1" id="Layer_1" xmlns="http://www.w3.org/2000/svg" xmlns:xlink="http://www.w3.org/1999/xlink" x="0px" y="0px"
	 viewBox="0 0 100 100" style="enable-background:new 0 0 100 100;" xml:space="preserve">
<style type="text/css">
	.st0{fill:none;}
	.st1{fill:#FFFFFF;}
	.st2{fill:#FFFFFF;stroke:#FFFFFF;stroke-width:0.25;stroke-miterlimit:10;}
	.st3{fill:none;stroke:#000000;stroke-width:0.25;stroke-linecap:round;stroke-miterlimit:10;}
	.st4{fill:#D9D9D9;}
	.st5{fill:none;stroke:#000000;stroke-width:2;stroke-linejoin:round;stroke-miterlimit:10;}
	.st6{fill:none;stroke:#000000;stroke-width:0.4396;stroke-miterlimit:10;}
	.st7{fill:none;stroke:#000000;stroke-linecap:round;stroke-linejoin:round;}
	.st8{fill:none;stroke:#000000;stroke-linecap:round;stroke-linejoin:round;stroke-miterlimit:10;}
</style>
<g>
	<path d="M1.54,39.13h96.89c0.83,0,1.51-0.67,1.51-1.5V1.52c0-0.83-0.68-1.5-1.51-1.5H1.54c-0.83,0-1.51,0.67-1.51,1.5v36.11
		C0.02,38.46,0.7,39.13,1.54,39.13z M3.05,36.13V3.01h93.87v33.12H3.05z"/>
	<path d="M99.79,97.59L71.64,48.85c-0.27-0.47-0.8-0.76-1.39-0.76s-1.12,0.29-1.39,0.76L40.72,97.59c-0.29,0.49-0.29,1.11,0,1.6
		c0.29,0.49,0.82,0.8,1.39,0.8H98.4c0.57,0,1.1-0.31,1.39-0.8C100.07,98.7,100.07,98.09,99.79,97.59z M44.89,96.79l25.36-43.93
		l25.36,43.93H44.89z"/>
	<ellipse transform="matrix(0.982 -0.1891 0.1891 0.982 -12.2473 5.9093)" cx="24.84" cy="67.13" rx="24.93" ry="24.93"/>
</g>
</svg>

<svg id="Layer_1" data-name="Layer 1" xmlns="http://www.w3.org/2000/svg" viewBox="0 0 100 100"><defs><style>.cls-1{fill:#231f20;}</style></defs><title> </title><path class="cls-1" d="M1.54,39.13H98.43a1.51,1.51,0,0,0,1.51-1.5V1.52A1.51,1.51,0,0,0,98.43,0H1.54A1.51,1.51,0,0,0,0,1.52V37.63A1.51,1.51,0,0,0,1.54,39.13Zm1.51-3V3H96.92V36.13Z"/><path class="cls-1" d="M99.79,97.59,71.64,48.85a1.65,1.65,0,0,0-2.78,0L40.72,97.59a1.6,1.6,0,0,0,0,1.61,1.63,1.63,0,0,0,1.39.8H98.4a1.63,1.63,0,0,0,1.39-.8A1.65,1.65,0,0,0,99.79,97.59Zm-54.9-.8L70.25,52.86,95.62,96.79Z"/><circle class="cls-1" cx="24.84" cy="67.13" r="24.93" transform="translate(-12.25 5.91) rotate(-10.9)"/></svg>
